X: 22
T: Pollonesse #22
M: 3/4
L: 1/16
K: D
Q:120
F2G2 A4 c2BA|G2AB A8|d2f2 d4c4|d2e2 g2f2 e2d2|d4A8|
F2G2 A4 d2BA| G2AB A8|F4E4D4::[d4f4][c8e8]|d2e2 g2f2 e2d2|c4A8|
F2G2 B4 d2BA|G2AB A8|F4E4D4:|

